Numix/16/status/indicator-keyboard-Uk-7.svg

<?xml version="1.0" encoding="UTF-8" standalone="no"?>
<svg
   xmlns:dc="http://purl.org/dc/elements/1.1/"
   xmlns:cc="http://creativecommons.org/ns#"
   xmlns:rdf="http://www.w3.org/1999/02/22-rdf-syntax-ns#"
   xmlns:svg="http://www.w3.org/2000/svg"
   xmlns="http://www.w3.org/2000/svg"
   xmlns:sodipodi="http://sodipodi.sourceforge.net/DTD/sodipodi-0.dtd"
   xmlns:inkscape="http://www.inkscape.org/namespaces/inkscape"
   viewBox="0 0 16 16"
   id="svg2"
   version="1.1"
   inkscape:version="0.91 r13725"
   sodipodi:docname="indicator-keyboard-Uk-7.svg">
  <metadata
     id="metadata14">
    <rdf:RDF>
      <cc:Work
         rdf:about="">
        <dc:format>image/svg+xml</dc:format>
        <dc:type
           rdf:resource="http://purl.org/dc/dcmitype/StillImage" />
      </cc:Work>
    </rdf:RDF>
  </metadata>
  <defs
     id="defs12" />
  <sodipodi:namedview
     pagecolor="#ffffff"
     bordercolor="#666666"
     borderopacity="1"
     objecttolerance="10"
     gridtolerance="10"
     guidetolerance="10"
     inkscape:pageopacity="0"
     inkscape:pageshadow="2"
     inkscape:window-width="640"
     inkscape:window-height="480"
     id="namedview10"
     showgrid="false"
     inkscape:zoom="14.75"
     inkscape:cx="8"
     inkscape:cy="8"
     inkscape:window-x="65"
     inkscape:window-y="24"
     inkscape:window-maximized="0"
     inkscape:current-layer="svg2" />
  <path
     style="fill:#ececec;fill-opacity:1"
     d="M 1.5996094 0 C 0.71320937 2.9605947e-16 0 0.71320937 0 1.5996094 L 0 14.400391 C 2.9605947e-16 15.286791 0.71320937 16 1.5996094 16 L 14.400391 16 C 15.286791 16 16 15.286791 16 14.400391 L 16 1.5996094 C 16 0.71320937 15.286791 0 14.400391 0 L 1.5996094 0 z M 8.3691406 4.1113281 L 8.3691406 8.5390625 C 8.5191406 8.3950625 8.6870469 8.2309219 8.8730469 8.0449219 C 9.0590469 7.8589219 9.2456406 7.6705156 9.4316406 7.4785156 C 9.6236406 7.2865156 9.8027031 7.0999219 9.9707031 6.9199219 C 10.138703 6.7399219 10.282344 6.5813594 10.402344 6.4433594 L 11.105469 6.4433594 C 10.967469 6.5873594 10.810719 6.7496875 10.636719 6.9296875 C 10.462719 7.1096875 10.279891 7.2980937 10.087891 7.4960938 C 9.9018907 7.6880937 9.7152969 7.8765 9.5292969 8.0625 L 9.0253906 8.5664062 C 9.2113906 8.6924062 9.4110938 8.8547344 9.6210938 9.0527344 C 9.8370938 9.2507344 10.046 9.4671719 10.25 9.7011719 C 10.46 9.9291721 10.655938 10.166109 10.835938 10.412109 C 11.021937 10.652109 11.176734 10.879703 11.302734 11.095703 L 10.609375 11.095703 C 10.465375 10.855703 10.301234 10.622531 10.115234 10.394531 C 9.9352344 10.160531 9.7430625 9.9403283 9.5390625 9.7363281 C 9.3410625 9.5323281 9.1395469 9.3476875 8.9355469 9.1796875 C 8.7375469 9.0116875 8.5491406 8.8698594 8.3691406 8.7558594 L 8.3691406 11.095703 L 7.7851562 11.095703 L 7.7851562 4.2207031 L 8.3691406 4.1113281 z M 1.6757812 4.859375 L 2.2871094 4.859375 L 2.2871094 8.7011719 C 2.2871094 9.0431719 2.3262969 9.34175 2.4042969 9.59375 C 2.4882969 9.83975 2.6020938 10.043078 2.7460938 10.205078 C 2.8900937 10.367078 3.0655313 10.486453 3.2695312 10.564453 C 3.4735313 10.642453 3.701125 10.681641 3.953125 10.681641 C 4.205125 10.681641 4.4327187 10.642453 4.6367188 10.564453 C 4.8407187 10.486453 5.0142031 10.367078 5.1582031 10.205078 C 5.3022031 10.043078 5.4141875 9.83975 5.4921875 9.59375 C 5.5761875 9.34175 5.6171875 9.0431719 5.6171875 8.7011719 L 5.6171875 4.859375 L 6.2304688 4.859375 L 6.2304688 8.7832031 C 6.2304688 9.1252031 6.1875156 9.4460938 6.1035156 9.7460938 C 6.0255156 10.040094 5.8967969 10.297531 5.7167969 10.519531 C 5.5367969 10.741531 5.2998594 10.916969 5.0058594 11.042969 C 4.7178594 11.168969 4.367125 11.230469 3.953125 11.230469 C 3.539125 11.230469 3.184625 11.168969 2.890625 11.042969 C 2.602625 10.916969 2.3694531 10.741531 2.1894531 10.519531 C 2.0094531 10.297531 1.8769687 10.040094 1.7929688 9.7460938 C 1.7149687 9.4460938 1.6757812 9.1252031 1.6757812 8.7832031 L 1.6757812 4.859375 z M 11.861328 8.8417969 L 14.324219 8.8417969 L 14.324219 9.1816406 C 14.191619 9.3415406 14.044666 9.5551188 13.884766 9.8242188 C 13.728766 10.089419 13.581806 10.391163 13.441406 10.726562 C 13.301007 11.058062 13.177566 11.410756 13.072266 11.785156 C 12.970866 12.159556 12.908166 12.529884 12.884766 12.896484 L 12.480469 12.896484 C 12.503869 12.572784 12.56265 12.229888 12.65625 11.867188 C 12.75375 11.504488 12.871313 11.1518 13.007812 10.8125 C 13.148213 10.4732 13.299085 10.161653 13.458984 9.8769531 C 13.622784 9.5922532 13.779541 9.3649594 13.931641 9.1933594 L 11.861328 9.1933594 L 11.861328 8.8417969 z "
     id="path4" />
</svg>

<svg xmlns="http://www.w3.org/2000/svg" viewBox="0 0 16 16">
 <path d="m 1.6 0 c -0.886 0 -1.6 0.713 -1.6 1.6 l 0 12.801 c 0 0.886 0.713 1.6 1.6 1.6 l 12.801 0 c 0.886 0 1.6 -0.713 1.6 -1.6 l 0 -12.801 c 0 -0.886 -0.713 -1.6 -1.6 -1.6 l -12.801 0 z m 6.77 4.111 l 0 4.428 c 0.15 -0.144 0.318 -0.308 0.504 -0.494 c 0.186 -0.186 0.373 -0.374 0.559 -0.566 c 0.192 -0.192 0.371 -0.379 0.539 -0.559 c 0.168 -0.18 0.312 -0.339 0.432 -0.477 l 0.703 0 c -0.138 0.144 -0.295 0.306 -0.469 0.486 c -0.174 0.18 -0.357 0.368 -0.549 0.566 c -0.186 0.192 -0.373 0.38 -0.559 0.566 l -0.504 0.504 c 0.186 0.126 0.386 0.288 0.596 0.486 c 0.216 0.198 0.425 0.414 0.629 0.648 c 0.21 0.228 0.406 0.465 0.586 0.711 c 0.186 0.24 0.341 0.468 0.467 0.684 l -0.693 0 c -0.144 -0.24 -0.308 -0.473 -0.494 -0.701 c -0.18 -0.234 -0.372 -0.454 -0.576 -0.658 c -0.198 -0.204 -0.4 -0.389 -0.604 -0.557 c -0.198 -0.168 -0.386 -0.31 -0.566 -0.424 l 0 2.34 l -0.584 0 l 0 -6.875 l 0.584 -0.109 z m -6.693 0.748 l 0.611 0 l 0 3.842 c 0 0.342 0.039 0.641 0.117 0.893 c 0.084 0.246 0.198 0.449 0.342 0.611 c 0.144 0.162 0.319 0.281 0.523 0.359 c 0.204 0.078 0.432 0.117 0.684 0.117 c 0.252 0 0.48 -0.039 0.684 -0.117 c 0.204 -0.078 0.377 -0.197 0.521 -0.359 c 0.144 -0.162 0.256 -0.365 0.334 -0.611 c 0.084 -0.252 0.125 -0.551 0.125 -0.893 l 0 -3.842 l 0.613 0 l 0 3.924 c 0 0.342 -0.043 0.663 -0.127 0.963 c -0.078 0.294 -0.207 0.551 -0.387 0.773 c -0.18 0.222 -0.417 0.397 -0.711 0.523 c -0.288 0.126 -0.639 0.188 -1.053 0.188 c -0.414 0 -0.769 -0.061 -1.063 -0.188 c -0.288 -0.126 -0.521 -0.301 -0.701 -0.523 c -0.18 -0.222 -0.312 -0.479 -0.396 -0.773 c -0.078 -0.3 -0.117 -0.621 -0.117 -0.963 l 0 -3.924 z m 10.186 3.982 l 2.463 0 l 0 0.34 c -0.133 0.16 -0.28 0.373 -0.439 0.643 c -0.156 0.265 -0.303 0.567 -0.443 0.902 c -0.14 0.332 -0.264 0.684 -0.369 1.059 c -0.101 0.374 -0.164 0.745 -0.188 1.111 l -0.404 0 c 0.023 -0.324 0.082 -0.667 0.176 -1.029 c 0.098 -0.363 0.215 -0.715 0.352 -1.055 c 0.14 -0.339 0.291 -0.651 0.451 -0.936 c 0.164 -0.285 0.321 -0.512 0.473 -0.684 l -2.07 0 l 0 -0.352 z" style="fill:#ececec;fill-opacity:1"/>
</svg>
